img/tulip/thumb.svg

<svg height="394" viewBox="0 0 537 394" width="537" xmlns="http://www.w3.org/2000/svg"><g fill="none" fill-rule="nonzero"><path d="m0 0h537v393.345h-537z" fill="#f9f9fa"/><g transform="translate(87 144)"><path d="m158.468534 77.1491256v-49.3583466h16.490949l1.361638-8.8139904h-45.539224v8.8139904h16.944827v49.2114468h10.74181zm51.137069.7344992c13.465087 0 20.727156-5.8759936 20.727156-19.6845787v-39.0753577h-10.893104v38.9284579c0 6.6104928-1.361638 11.3112877-10.590517 11.3112877h-2.42069c-9.228879 0-10.74181-4.7007949-10.74181-11.3112877v-38.9284579h-10.74181v39.0753577c0 13.8085851 7.413362 19.6845787 20.727155 19.6845787zm74.284914-.7344992v-8.6670906h-27.837931v-49.3583466h-10.74181v58.0254372zm22.39138 0v-58.0254372h-10.741811v58.0254372zm26.627586 0v-22.7694754h11.952155c13.313793 0 18.760345-4.4069952 18.760345-15.1306836v-4.4069952c0-12.1926868-4.992673-15.8651828-19.214224-15.8651828h-22.240087v58.0254372h10.741811zm19.819396-38.0470588c0 5.1414944-1.361638 6.7573927-9.077586 6.7573927h-10.74181v-18.2155803h10.893103c7.867242 0 9.077586 1.7627981 9.077586 7.344992v4.1131956z" fill="#212e44"/><g fill="#ffd700"><path d="m90.538 26.175v38.341l-39.336 38.341v-38.341z"/><path d="m41.065 64.516v38.341l-39.487-38.341v-38.341z"/><path d="m74.047 28.672-27.838 27.177-27.989-27.177 27.989-27.029z"/></g></g></g></svg>

<svg xmlns="http://www.w3.org/2000/svg" width="537" height="394" viewBox="0 0 537 394">
  <g fill="none" fill-rule="evenodd">
    <rect width="537" height="393.345" fill="#F9F9FA" fill-rule="nonzero"/>
    <g transform="translate(87 144)">
      <path fill="#212E44" fill-rule="nonzero" d="M158.468534,77.1491256 L158.468534,27.790779 L174.959483,27.790779 L176.321121,18.9767886 L130.781897,18.9767886 L130.781897,27.790779 L147.726724,27.790779 L147.726724,77.0022258 L158.468534,77.0022258 L158.468534,77.1491256 Z M209.605603,77.8836248 C223.07069,77.8836248 230.332759,72.0076312 230.332759,58.1990461 L230.332759,19.1236884 L219.439655,19.1236884 L219.439655,58.0521463 C219.439655,64.6626391 218.078017,69.363434 208.849138,69.363434 L206.428448,69.363434 C197.199569,69.363434 195.686638,64.6626391 195.686638,58.0521463 L195.686638,19.1236884 L184.944828,19.1236884 L184.944828,58.1990461 C184.944828,72.0076312 192.35819,77.8836248 205.671983,77.8836248 L209.605603,77.8836248 Z M283.890517,77.1491256 L283.890517,68.482035 L256.052586,68.482035 L256.052586,19.1236884 L245.310776,19.1236884 L245.310776,77.1491256 L283.890517,77.1491256 Z M306.281897,77.1491256 L306.281897,19.1236884 L295.540086,19.1236884 L295.540086,77.1491256 L306.281897,77.1491256 Z M332.909483,77.1491256 L332.909483,54.3796502 L344.861638,54.3796502 C358.175431,54.3796502 363.621983,49.972655 363.621983,39.2489666 L363.621983,34.8419714 C363.621983,22.6492846 358.62931,18.9767886 344.407759,18.9767886 L322.167672,18.9767886 L322.167672,77.0022258 L332.909483,77.0022258 L332.909483,77.1491256 Z M352.728879,39.1020668 C352.728879,44.2435612 351.367241,45.8594595 343.651293,45.8594595 L332.909483,45.8594595 L332.909483,27.6438792 L343.802586,27.6438792 C351.669828,27.6438792 352.880172,29.4066773 352.880172,34.9888712 L352.880172,39.1020668 L352.728879,39.1020668 Z"/>
      <polygon fill="#FFD700" fill-rule="nonzero" points="90.538 26.175 90.538 64.516 51.202 102.857 51.202 64.516"/>
      <polygon fill="#FFD700" fill-rule="nonzero" points="41.065 64.516 41.065 102.857 1.578 64.516 1.578 26.175"/>
      <polygon fill="#FFD700" fill-rule="nonzero" points="74.047 28.672 46.209 55.849 18.22 28.672 46.209 1.643"/>
    </g>
  </g>
</svg>
